X:76
T:Drowsy Maggie 2
T:The reel with the birl
T:Tom Clair's Maggie
R:Reel
O:Ireland
P:APB The Chieftains
S:Chieftains 8
Z:Transcription, chords:Mike Long
M:C|
L:1/8
K:D
"Em"~E2BE dEBE|"Em"~E2BE "D"AFDF|"Em"~E2BE dEBE|"G"dcdB "D"AFDF|\
"Em"~E2BE dEBE|"Em"~E2BE "D"AFDF|
"Em"~E2BE dEBE|"G"dcdB "D"A2FA|]\
"G"BABd "(A)"e2de|"D"fddc d2ef|"G"g4 g4|
"D"faa2 {b}afed|\
"G"dbb2 bafe|"D"faab afed|"G"B2{c}BA BAFA|"G"dcdB "D"AFDF|]
